src/assets/home.svg

<svg width="20" height="20" viewBox="0 0 20 20" fill="none" xmlns="http://www.w3.org/2000/svg">
<g clip-path="url(#clip0_4107_4856)">
<path d="M19.4608 8.69904C19.4603 8.69858 19.4599 8.69812 19.4594 8.69766L11.301 0.539551C10.9532 0.19165 10.4909 0 9.9991 0C9.50731 0 9.04497 0.191498 8.69707 0.539398L0.542928 8.69339C0.540182 8.69614 0.537435 8.69904 0.534688 8.70178C-0.179423 9.42001 -0.178202 10.5853 0.538198 11.3017C0.865499 11.6292 1.29778 11.8188 1.75997 11.8387C1.77874 11.8405 1.79766 11.8414 1.81673 11.8414H2.1419V17.8453C2.1419 19.0334 3.10854 20 4.29689 20H7.48873C7.81221 20 8.07467 19.7377 8.07467 19.4141V14.707C8.07467 14.1649 8.51564 13.7239 9.05779 13.7239H10.9404C11.4826 13.7239 11.9235 14.1649 11.9235 14.707V19.4141C11.9235 19.7377 12.1858 20 12.5095 20H15.7013C16.8897 20 17.8563 19.0334 17.8563 17.8453V11.8414H18.1578C18.6495 11.8414 19.1118 11.6499 19.4599 11.302C20.177 10.5844 20.1773 9.41711 19.4608 8.69904Z" fill="white"/>
</g>
<defs>
<clipPath id="clip0_4107_4856">
<rect width="20" height="20" fill="white"/>
</clipPath>
</defs>
</svg>

<svg xmlns="http://www.w3.org/2000/svg" width="20" height="20" fill="none"><g clip-path="url(#a)"><path fill="#fff" d="M19.46 8.699v-.001L11.3.54A1.83 1.83 0 0 0 9.999 0a1.83 1.83 0 0 0-1.302.54L.543 8.692l-.008.009a1.843 1.843 0 0 0 .003 2.6 1.83 1.83 0 0 0 1.279.54h.325v6.003c0 1.188.967 2.155 2.155 2.155h3.192a.586.586 0 0 0 .586-.586v-4.707c0-.542.44-.983.983-.983h1.882c.543 0 .984.44.984.983v4.707c0 .324.262.586.585.586h3.192a2.157 2.157 0 0 0 2.155-2.155v-6.004h.302a1.83 1.83 0 0 0 1.302-.539 1.844 1.844 0 0 0 0-2.603"/></g><defs><clipPath id="a"><path fill="#fff" d="M0 0h20v20H0z"/></clipPath></defs></svg>
